X:247
T:The Scartaglen
R:polka
M:2/4
L:1/8
K:Gmaj
|G2 G>A|Bd de/f/|gB B/A/G/A/|BA AB/A/|G2 G>A|Bd de/f/|gB AB/A/|G2 G2:|
|Bd g>g|fe e/f/g/e/|dB B/A/G/A/|BA A2|Bd g>g|fe e/f/g/e/|dB AB/A/|G2 G2:|
|g2 ag/a/|b2 b>a|gg ag/a/|b2 b>a|ge e/f/g/e/|dB g>e|dB AB/A/|G2 G2:|

